X:1085
T:The Spey in Spate
M:C|
L:1/8
C:James Scott Skinner
R:reel
D:Siona:  Launching the Boat
Z:Eric Hounshell
K:D
D2FD A,DFA | dcBA ^GAFD | E2GE B,EE2 | gecA ^GAGE |
D2FD A,DFA | dDcD BDAf | gefd ecdB |1 AFGE DGFE :|2 AFGE DABc||
d2fd AFF2 | DFAd fagf | eBge BGED | CEAc egfe |
d2fd AdFA | DFAd fagf | gefd ecdB |1AFGE DABc :|2 AFGE DGFE ||
